X:1
T:Jerusalem surge - Martini
T:#
%%score [ 1 2 3 4 ]
L:1/8
Q:1/4=120
M:2/2
K:F
V:1 treble nm="Soprano" snm="S"
V:2 treble nm="Alto" snm="A"
V:3 treble-8 nm="Tenor" snm="T"
V:4 bass nm="Bass" snm="B"
V:1
"^Giovanni Battista Martini\n(1706-1784)""^Jerusalem surge" A4 A3 A | D4 B4 | A2 d2 d2 c2 | f4 e4 | %4
w: Je- ru- sa-|lem sur-|ge, Je- ru- sa-|lem sur-|
 d2 d4 ^c2 | A2 A3 A D2 | d4 c2 A2 | A2 c2 A4 | (B2 A4 GF | G6) F2 | z2 A2 A3 =B | c2 (A=B cBcd | %12
w: ge, sur- ge,|Je- ru- sa- lem|sur- ge, Je-|ru- sa- lem|sur\- * * *|* ge,|Je- ru- sa-|lem sur\- * * * * *|
 e3 d/c/ =BA B2- | BA A4 G2 | F2 ED) E4 | z2 F2 FG A2 | (FEFG A2) A2 | z2 (e3 d d2- | d2 ^c=B c4) | %19
w: ||* * * ge,|Je- ru- sa- lem|sur\- * * * * ge,|sur\- * *||
 ^c4 z4 | z4 z2 A2- | A2 G4 FF | E4 D4 | z2 d4 c2- | c2 BB A4 | G4 A2 G2 | A4 D2 d2- | d2 B4 G2- | %28
w: ge;|et|* sta in ex-|cel- so|et sta|* in ex- cel-|so, in ex-|cel- so, et|* vi- de,|
 G2 c4 A2- | A2 F3 F B2- | B2 A2 G4 | A2 A2 d3 c | B4 A4 | A2 A2 B2 A2 | A4 A2[Q:1/4=118] d2 | %35
w: * et vi\-|* de, ju- cun\-|* di- ta-|tem quae ve- ni-|et ti-|bi a De- o|tu- o, a|
[Q:1/4=116] B2[Q:1/4=114] ^F[Q:1/4=113]F[Q:1/4=111] G2[Q:1/4=109] A2 |[Q:1/4=104] B8 | %37
w: De- o, a De- o|tu-|
[Q:1/4=100] A8 |] %38
w: o.|
V:2
 z4 D2 D2- | DE F2 (DCDE | FEFG A4) | A2 F2 G2 A2 | F2 (ED E4) | D2 F2 F2 A2 | (FEFG A3) (G/F/ | %7
w: Je- ru\-|* sa- lem sur\- * * *||ge, Je- ru- sa-|lem sur\- * *|ge, Je- ru- sa-|lem * * * * sur\- *|
 ED E3) D (D2- | D2 ^C2 D2) A,2 | (G,3 A, B,2) A,2 | z2 F2 F3 F | E4 A4 | G2 (E3 F G2- | %13
w: * * * ge, sur\-|* * * ge,|sur\- * * ge,|Je- ru- sa-|lem sur-|ge, sur\- * *|
 G2) E2 z4 | z4 A4 | A3 A D4 | B4 A2 D2 | D2 C2 F4 | E4 E4 | z2 A4 G2- | G2 FF E4 | D4 z4 | z8 | %23
w: * ge,|Je-|ru- sa- lem|sur- ge, Je-|ru- sa- lem|sur- ge;|et sta|* in ex- cel-|so,||
 D4 E4 | ^FD (G4 F2) | G2 E2 D2 DD | (C2 D2) B,4 | z2 G4 E2- | E2 C4 F2- | F2 D4 GF | EE (F4 E2) | %31
w: et sta|in ex- cel\- *|so, et sta in ex-|cel\- * so,|et vi\-|* de, et|* vi- de ju-|cun- di- ta\- *|
 F4 F2 F2- | FF G2 E4 | E2 F2 D2 F2 | E4 D4 | z2 A2 B2 A2- | A2 (G^F G4) | ^F8 |] %38
w: tem quae ve\-|* ni- et ti-|bi a De- o|tu- o,|a De- o|* tu\- * *|o.|
V:3
 z8 | z8 | z8 | z8 | z4 A4 | A3 A D4 | B4 A2 d2 | d2 c2 f4 | e4 d2 (d2- | d2 ^c2 d3 =c/B/) | %10
w: ||||Je-|ru- sa- lem|sur- ge, Je-|ru- sa- lem|sur- ge, sur\-||
 A4 z2 A2 | A=B c2 (AGAB | c=Bcd e4) | e2 c2 d3 d | ^c2 (d4 c2) | d2 A2 AA D2 | d4 c2 f2 | e4 z4 | %18
w: ge, Je-|ru- sa- lem sur\- * * *||ge, Je- ru- sa-|lem sur\- *|ge, Je- ru- sa- lem|sur- ge, sur-|ge,|
 z8 | A4 =B4 | ^cA (d4 c2) | d4 z2 D2 | E4 ^FD (G2- | G2 F2 E4) | D4 z2 d2- | d2 c4 BB | A4 G4 | %27
w: |et sta|in ex- cel\- *|so, et|sta in ex- cel\-||so, et|* sta in ex-|cel- so,|
 B4 G4 | c4 A4 | F4 B2 d2 | c2 c2 c4 | c4 A2 B2- | Bc d2 ^c4 | ^c2 d2 d2 d2 | (d2 ^c2) d4 | %35
w: et vi-|de, et|vi- de ju-|cun- di- ta-|tem quae ve\-|* ni- et ti-|bi a De- o|tu\- * o,|
 z2 d2 d2 d2 | d8 | d8 |] %38
w: a De- o|tu-|o.|
V:4
 z8 | z8 | z8 | z8 | z8 | D,2 D,3 E, F,2 | (D,C,D,E, F,E,F,G, | A,4) A,2 F,2 | G,2 A,2 F,2 E,D, | %9
w: |||||Je- ru- sa- lem|sur\- * * * * * * *|* ge, Je-|ru- sa- lem sur\- *|
 E,4 D,4 | D,4 D,3 D, | A,,4 F,4 | E,2 A,2 A,2 G,2 | C4 =B,4 | A,8 | z2 D,2 D,E, F,2 | %16
w: * ge,|Je- ru- sa-|lem sur-|ge, Je- ru- sa-|lem sur-|ge,|Je- ru- sa- lem|
 (D,C,D,E, F,E,F,G, | A,6) D,2 | A,8 | A,,4 z4 | z4 A,4 | =B,4 ^CA, D2- | D2 C4 B,2 | A,4 G,4 | %24
w: sur\- * * * * * * *|* ge,|sur-|ge;|et|sta in ex- cel\-||* so,|
 z4 D,4 | E,4 ^F,D, (G,2- | G,2 ^F,2) G,4 | G,4 E,4 | C,4 F,4 | D,4 B,,3 B,, | C,2 F,2 C,4 | %31
w: et|sta in ex- cel\-|* * so,|et vi-|de, et|vi- de ju-|cun- di- ta-|
 F,4 F,2 B,2- | B,A, G,2 A,4 | A,2 F,2 G,2 D,2 | A,4 D,4 | z2 D2 B,2 ^F,2 | G,8 | D,8 |] %38
w: tem quae ve\-|* ni- et ti-|bi a De- o|tu- o,|a De- o|tu-|o.|

